images/google.svg

<svg width="79" height="27" viewBox="0 0 79 27" fill="none" xmlns="http://www.w3.org/2000/svg">
<path fill-rule="evenodd" clip-rule="evenodd" d="M15.8735 13.156H12.4196L13.5755 12.027H19.7359L18.8288 12.9196C18.6604 13.0716 18.5478 13.2446 18.5478 13.4968V18.4283C15.6729 19.2154 13.1841 19.6364 10.3811 19.6364C4.6002 19.6364 0 15.8928 0 9.67838C0 5.31251 3.44961 0 10.9965 0C14.4343 0 16.8395 1.05087 18.5005 2.15661L15.8744 4.74054V3.18322C14.4739 1.93399 12.9084 1.03716 10.218 1.03716C5.96632 1.03716 2.91882 4.28252 2.91882 8.90922C2.91882 13.6265 6.28801 18.4568 12.0206 18.4568C13.435 18.4568 14.7958 18.2699 15.8735 17.9292V13.156ZM27.4764 6.54545C23.2049 6.54545 20.5583 9.56428 20.5583 12.7686C20.5583 15.5344 22.6904 18.8182 27.0104 18.8182C31.1659 18.8182 33.7155 15.7934 33.7155 12.533C33.7155 9.49595 31.2239 6.54658 27.4764 6.54658V6.54545ZM26.7677 7.42557C29.7793 7.42557 31.1205 11.2204 31.1205 13.927C31.1205 17.9523 27.9983 18.0319 27.625 18.0319C26.1962 18.0319 25.1977 17.1967 24.4502 16.1013C23.7922 15.0918 23.149 13.2162 23.149 11.3836C23.149 9.55805 23.7668 8.66672 24.7391 8.01096C25.5341 7.5194 26.2786 7.42557 26.7667 7.42557H26.7677ZM55.4381 6.54545C51.8331 6.54545 49.8829 8.91441 49.8829 11.5594C49.8829 13.573 51.2727 15.8447 54.1399 15.8447H54.8653C54.8653 15.8447 54.6677 16.3428 54.6667 16.824C54.6667 17.5337 54.9123 17.9323 55.4339 18.5457C50.5003 18.8577 48.5175 20.9231 48.5175 23.1429C48.5175 25.0869 50.3109 27 54.0797 27C58.5415 27 60.8524 24.4289 60.8524 21.9057C60.8524 20.1269 59.9986 19.1518 57.8364 17.4702C57.2006 16.9573 57.0774 16.6306 57.0774 16.2467C57.0774 15.707 57.3827 15.3464 57.5038 15.2034L57.5104 15.1955C57.6454 15.0477 57.8455 14.8861 58.0042 14.758C58.0862 14.6918 58.1571 14.6345 58.2022 14.5927C58.9287 13.9539 59.9548 13.0086 59.9548 11.1218C59.9548 9.8273 59.436 8.71368 58.2542 7.67092H59.697L60.7811 6.54567H55.4381V6.54545ZM54.4437 7.38728C55.0978 7.38728 55.6438 7.62735 56.2206 8.12546C56.8603 8.72405 57.8825 10.3326 57.8825 12.323C57.8825 14.4709 56.2747 15.0589 55.4045 15.0589C54.9786 15.0589 54.4682 14.9351 54.0361 14.6285C53.0763 13.9824 52.1235 12.2627 52.1235 10.2163C52.1235 8.36976 53.1832 7.38728 54.4437 7.38728ZM56.3439 19.3844C56.3439 19.3844 56.1462 19.3611 55.8712 19.3611C52.1694 19.4149 50.8203 20.864 50.8203 22.5477C50.8203 24.5803 52.789 25.825 55.3647 25.825C57.7112 25.825 59.1601 24.5538 59.1601 22.9326C59.1601 21.7533 58.502 21.0913 57.4464 20.2251C56.993 19.8656 56.3439 19.3844 56.3439 19.3844ZM66.6335 18.8182H61.3979L62.3573 17.8739C62.5146 17.7131 62.5879 17.5566 62.5879 17.3267V1.14766H60.8524L62.0145 0H66.4793L65.535 0.932605C65.4294 1.03279 65.285 1.19035 65.285 1.49802V17.117C65.285 17.4513 65.5252 17.7963 65.9295 17.8452L67.4311 18.0305L66.6335 18.8182ZM67.4311 12.4381C67.4311 8.65346 70.5744 6.54545 73.5333 6.54545H73.5344C76.6732 6.54545 78.0392 8.17118 78.5236 9.78558L70.1368 12.9542C70.9376 15.8975 73.2266 17.4986 75.6007 17.4986C76.8501 17.4986 77.7906 17.1417 78.9437 16.5981C78.3328 17.362 77.496 17.9698 76.6264 18.3441C75.8158 18.6918 74.9506 18.8182 73.8999 18.8182C69.6863 18.8182 67.4311 15.5638 67.4311 12.4381ZM75.7207 9.58763C75.7207 8.63204 74.5731 7.4113 72.9855 7.4113C71.936 7.4113 69.8085 8.1466 69.8085 10.8971C69.8085 11.5529 69.948 12.1597 69.948 12.1597L75.1032 10.2108C75.5135 10.0598 75.7207 9.89664 75.7207 9.58763ZM42.2784 6.54545C38.0068 6.54545 35.3602 9.56428 35.3602 12.7686C35.3602 15.5344 37.4924 18.8182 41.8123 18.8182C45.9678 18.8182 48.5175 15.7934 48.5175 12.533C48.5175 9.49595 46.0258 6.54658 42.2784 6.54658V6.54545ZM41.5697 7.42557C44.5813 7.42557 45.9224 11.2204 45.9224 13.927C45.9224 17.9523 42.8002 18.0319 42.4269 18.0319C40.9982 18.0319 39.9996 17.1967 39.2521 16.1013C38.5942 15.0918 37.951 13.2162 37.951 11.3836C37.951 9.55805 38.5687 8.66672 39.541 8.01096C40.3361 7.5194 41.0805 7.42557 41.5686 7.42557H41.5697Z" fill="#36536B"/>
</svg>

<svg width="79" height="27" fill="none" xmlns="http://www.w3.org/2000/svg"><path fill-rule="evenodd" clip-rule="evenodd" d="M15.873 13.156H12.42l1.155-1.129h6.16l-.906.893c-.169.152-.281.325-.281.577v4.931c-2.875.787-5.364 1.208-8.167 1.208C4.601 19.636 0 15.893 0 9.678 0 5.313 3.45 0 10.996 0c3.438 0 5.844 1.05 7.504 2.157L15.874 4.74V3.183c-1.4-1.249-2.966-2.146-5.656-2.146-4.252 0-7.3 3.246-7.3 7.872 0 4.717 3.37 9.548 9.103 9.548 1.414 0 2.775-.187 3.852-.528v-4.773Zm11.603-6.61c-4.271 0-6.918 3.018-6.918 6.223 0 2.765 2.132 6.05 6.452 6.05 4.156 0 6.705-3.026 6.705-6.286 0-3.037-2.491-5.986-6.239-5.986v-.002Zm-.708.88c3.011 0 4.352 3.794 4.352 6.501 0 4.025-3.122 4.105-3.495 4.105-1.429 0-2.427-.835-3.175-1.93-.658-1.01-1.301-2.886-1.301-4.718 0-1.826.618-2.717 1.59-3.373a3.82 3.82 0 0 1 2.028-.585Zm28.67-.88c-3.605 0-5.555 2.368-5.555 5.013 0 2.014 1.39 4.286 4.257 4.286h.725s-.197.498-.198.979c0 .71.245 1.108.767 1.722-4.934.312-6.916 2.377-6.916 4.597 0 1.944 1.793 3.857 5.562 3.857 4.462 0 6.772-2.571 6.772-5.094 0-1.78-.853-2.754-3.016-4.436-.635-.513-.759-.84-.759-1.223 0-.54.306-.9.427-1.044l.006-.008c.135-.147.336-.309.494-.437.082-.066.153-.123.198-.165.727-.64 1.753-1.584 1.753-3.471 0-1.295-.519-2.408-1.7-3.451h1.442l1.084-1.125h-5.343Zm-.994.841c.654 0 1.2.24 1.777.738.64.6 1.662 2.208 1.662 4.198 0 2.148-1.608 2.736-2.479 2.736-.425 0-.936-.124-1.368-.43-.96-.647-1.913-2.366-1.913-4.413 0-1.846 1.06-2.829 2.32-2.829Zm1.9 11.997s-.198-.023-.473-.023c-3.702.054-5.05 1.503-5.05 3.187 0 2.032 1.968 3.277 4.544 3.277 2.346 0 3.795-1.271 3.795-2.892 0-1.18-.658-1.842-1.714-2.708a52.81 52.81 0 0 0-1.102-.84Zm10.29-.566h-5.236l.96-.944a.716.716 0 0 0 .23-.547V1.147h-1.736L62.015 0h4.464l-.944.933a.72.72 0 0 0-.25.565v15.619c0 .334.24.68.645.728l1.501.186-.797.787Zm.797-6.38c0-3.785 3.143-5.893 6.102-5.893h.001c3.14 0 4.505 1.626 4.99 3.24l-8.387 3.17c.8 2.943 3.09 4.544 5.464 4.544 1.25 0 2.19-.357 3.343-.9a6.098 6.098 0 0 1-2.318 1.745c-.81.348-1.675.474-2.726.474-4.214 0-6.469-3.254-6.469-6.38Zm8.29-2.85c0-.956-1.148-2.177-2.736-2.177-1.049 0-3.177.736-3.177 3.486 0 .656.14 1.263.14 1.263l5.155-1.95c.41-.15.618-.313.618-.622ZM42.278 6.545c-4.271 0-6.918 3.02-6.918 6.224 0 2.765 2.132 6.05 6.452 6.05 4.156 0 6.706-3.026 6.706-6.286 0-3.037-2.492-5.986-6.24-5.986v-.002Zm-.708.88c3.011 0 4.352 3.795 4.352 6.502 0 4.025-3.122 4.105-3.495 4.105-1.429 0-2.427-.835-3.175-1.93-.658-1.01-1.301-2.886-1.301-4.718 0-1.826.618-2.717 1.59-3.373a3.821 3.821 0 0 1 2.028-.585Z" fill="#36536B"/></svg>
